X:1
T:Miner's Child's Dream
M:4/4
L:1/4
K:G
 z2 B- A| G2 G G| E2 E E| G2 G A| G2 G A| B2- A G| G2 A B| A4-| A2 B- A|\
 G2 G G| E2 E E| G2 G A| G2 G- A| B2 B B| A2 E F| G4-| G2 z B| d2 d d|\
 B2 B B| G3 E| D2 B- c| d2- B A| G2 A B| A4-| A3 B| G2 G G| E2 E E|\
 G2 G A| G2 G- A| B2 B B| A2 E F| G4-| g2 z2|
